assets/icons/ic_download.svg

<svg fill="none" height="16" viewBox="0 0 12 16" width="12" xmlns="http://www.w3.org/2000/svg"><path clip-rule="evenodd" d="m5.42148 11.033c.31951.3195.83756.3195 1.15708 0l4.09084-4.09087c.3196-.31952.3196-.83757 0-1.15709-.3195-.31951-.83745-.31951-1.15698 0l-2.69422 2.69419v-7.29746c0-.451867-.36632-.818184-.81818-.818184-.45187 0-.81818.366317-.81818.818184v7.29746l-2.69419-2.69419c-.31952-.31951-.83757-.31951-1.15708 0-.31952.31952-.31952.83757 0 1.15709zm-4.05783 2.4216c-.451862 0-.818179.3663-.818179.8182 0 .4518.366317.8182.818179.8182h9.27275c.4518 0 .8182-.3664.8182-.8182 0-.4519-.3664-.8182-.8182-.8182z" fill="#fff" fill-rule="evenodd"/></svg>

<svg width="12" height="16" viewBox="0 0 12 16" fill="none" xmlns="http://www.w3.org/2000/svg">
<path fill-rule="evenodd" clip-rule="evenodd" d="M5.42148 11.033C5.74099 11.3525 6.25904 11.3525 6.57856 11.033L10.6694 6.94213C10.989 6.62261 10.989 6.10456 10.6694 5.78504C10.3499 5.46553 9.83195 5.46553 9.51242 5.78504L6.8182 8.47923V1.18177C6.8182 0.729903 6.45188 0.363586 6.00002 0.363586C5.54815 0.363586 5.18184 0.729903 5.18184 1.18177V8.47923L2.48765 5.78504C2.16813 5.46553 1.65008 5.46553 1.33057 5.78504C1.01105 6.10456 1.01105 6.62261 1.33057 6.94213L5.42148 11.033ZM1.36365 13.4546C0.911788 13.4546 0.545471 13.8209 0.545471 14.2728C0.545471 14.7246 0.911788 15.091 1.36365 15.091H10.6364C11.0882 15.091 11.4546 14.7246 11.4546 14.2728C11.4546 13.8209 11.0882 13.4546 10.6364 13.4546H1.36365Z" fill="white"/>
</svg>
